dist/img/icon-phone.svg

<svg width="16" height="16" viewBox="0 0 16 16" fill="none"
    xmlns="http://www.w3.org/2000/svg">
    <path d="M14.6861 12.0733L12.5241 9.9061C12.0934 9.47621 11.3803 9.48927 10.9346 9.9361L9.84534 11.0276C9.77652 10.9896 9.70529 10.9499 9.6304 10.9077C8.94254 10.5257 8.00109 10.0022 7.0104 9.00851C6.01678 8.01276 5.49391 7.06772 5.11161 6.37786C5.07127 6.30478 5.03261 6.23431 4.99445 6.16739L5.7255 5.43577L6.08492 5.07509C6.53125 4.62763 6.54356 3.91305 6.11392 3.48192L3.95184 1.31445C3.52219 0.883917 2.80871 0.896979 2.36238 1.34444L1.75303 1.95868L1.76968 1.97525C1.56536 2.23655 1.39462 2.53793 1.26756 2.86292C1.15044 3.17228 1.07752 3.46748 1.04418 3.76329C0.758688 6.13542 1.84023 8.30337 4.7754 11.2452C8.8327 15.3114 12.1023 15.0043 12.2434 14.9893C12.5506 14.9525 12.845 14.8789 13.1442 14.7624C13.4657 14.6366 13.7662 14.4657 14.0267 14.2613L14.04 14.2732L14.6573 13.6673C15.1028 13.22 15.1156 12.5051 14.6861 12.0733Z" fill="#555555"/>
</svg>

<svg width="16" height="16" fill="none" xmlns="http://www.w3.org/2000/svg"><path d="M14.686 12.073l-2.162-2.167c-.43-.43-1.144-.417-1.59.03l-1.089 1.092a28.39 28.39 0 01-.215-.12c-.687-.382-1.629-.906-2.62-1.9-.993-.995-1.516-1.94-1.898-2.63l-.118-.21.732-.732.359-.36c.446-.448.459-1.163.029-1.594L3.952 1.314c-.43-.43-1.143-.417-1.59.03l-.609.615.017.016a3.534 3.534 0 00-.502.888c-.118.31-.19.604-.224.9-.285 2.372.796 4.54 3.731 7.482 4.058 4.066 7.327 3.76 7.468 3.744a3.645 3.645 0 001.784-.728l.013.012.617-.606c.446-.447.459-1.162.03-1.594z" fill="#555"/></svg>
